X:168
T: Ej, haj, Subri pajtás...
M: 4/4
L: 1/4
K: F
d2g2 | gfed | 
gfgd | cBAG | 
B2 d2 | cBAG | 
BBdd | GGAG | 

